img/icon-4.svg

<svg width="81" height="80" viewBox="0 0 81 80" fill="none" xmlns="http://www.w3.org/2000/svg">
<path d="M75.494 67.0968V29.6774C75.494 26.6452 73.383 24.111 70.5585 23.4245C70.9817 22.4748 71.3908 21.52 71.7817 20.5548L71.8334 20.4271C72.5495 18.6581 72.9134 16.7961 72.9134 14.8929C72.9134 6.68129 66.1521 0 57.8424 0H57.0166C48.7069 0 41.9456 6.68129 41.9456 14.8929C41.9456 16.7974 42.3095 18.6594 43.0256 20.431L43.0759 20.5548C43.4398 21.4529 43.823 22.3419 44.2153 23.2271H35.2966L36.7018 14.7974C36.7572 14.4671 36.7843 14.1342 36.7843 13.7987C36.7843 10.4594 34.0669 7.74194 30.7276 7.74194H6.71204C3.37269 7.74194 0.655273 10.4594 0.655273 13.7987C0.655273 14.1329 0.68237 14.4671 0.737854 14.7948L2.58946 25.9058C2.91591 27.8632 4.15333 29.4439 5.81656 30.2916V67.0968H0.655273V70.9677C0.655273 75.9484 4.70688 80 9.68753 80H71.623C76.6037 80 80.6553 75.9484 80.6553 70.9677V67.0968H75.494ZM57.0166 2.58065H57.8424C64.7301 2.58065 70.3327 8.10322 70.3327 14.8929C70.3327 16.4632 70.0334 18 69.4424 19.4581L69.3908 19.5858C66.3637 27.0542 62.3443 34.0774 57.4295 40.4865C52.5147 34.0774 48.4953 27.0542 45.4669 19.5845L45.4166 19.4606C44.8256 18 44.5263 16.4632 44.5263 14.8929C44.5263 8.10322 50.1288 2.58065 57.0166 2.58065ZM67.7521 30.9677V38.6232C66.5779 37.8477 65.045 37.2142 63.2205 36.7794C64.4734 34.8852 65.6553 32.9471 66.7637 30.9677H67.7521ZM18.7198 23.2258C20.854 23.2258 22.5908 24.9626 22.5908 27.0968V28.3871V29.6774V33.0142C22.5908 33.4503 21.9856 33.6994 21.6785 33.3923L16.6734 28.3871H14.8488V27.0968C14.8488 24.9626 16.5856 23.2258 18.7198 23.2258ZM16.1392 18.0645C16.1392 16.6413 17.2966 15.4839 18.7198 15.4839C20.143 15.4839 21.3005 16.6413 21.3005 18.0645C21.3005 19.4877 20.143 20.6452 18.7198 20.6452C17.2966 20.6452 16.1392 19.4877 16.1392 18.0645ZM15.605 30.9677L19.854 35.2168C20.4424 35.8052 21.2243 36.129 22.0566 36.129C23.774 36.129 25.1714 34.7316 25.1714 33.0142V30.9677H28.8759H33.6695L13.5585 51.0787V30.9677H15.605ZM51.6385 36.7794C47.5934 37.7445 44.9572 39.6761 44.5766 41.9961L30.9779 55.5948L21.8347 46.4516L37.3185 30.9677H48.0953C49.2037 32.9471 50.3856 34.8852 51.6385 36.7794ZM61.6359 39.0981C65.4682 39.809 67.7521 41.3742 67.7521 42.5806C67.7521 44.1587 63.7301 46.4516 57.4295 46.4516C51.1288 46.4516 47.1069 44.1587 47.1069 42.5806C47.1069 41.3742 49.3908 39.809 53.223 39.0981C54.2501 40.5535 55.3082 41.9871 56.4205 43.3845L57.4295 44.6516L58.4385 43.3845C59.5508 41.9871 60.6088 40.5523 61.6359 39.0981ZM13.5585 54.7277L20.0101 48.2761L33.6695 61.9355H13.5585V54.7277ZM37.3185 61.9355L32.8024 57.4194L45.3314 44.8903C47.1134 47.3574 51.7198 49.0323 57.4295 49.0323C61.7508 49.0323 65.4372 48.071 67.7521 46.5342V61.9355H37.3185ZM45.4114 25.8064C45.8282 26.6735 46.2592 27.5329 46.703 28.3871H33.814C34.3224 27.6632 34.6966 26.8323 34.8501 25.9071L34.8669 25.8064H45.4114ZM3.28366 14.369C3.2514 14.1806 3.23592 13.9897 3.23592 13.7987C3.23592 11.8813 4.79462 10.3226 6.71204 10.3226H30.7263C32.645 10.3226 34.2037 11.8813 34.2037 13.7987C34.2037 13.9897 34.1882 14.1806 34.1559 14.3703L32.3043 25.4813C32.0243 27.1652 30.5818 28.3871 28.8759 28.3871H25.1714V27.0968C25.1714 24.8735 24.0411 22.9084 22.3237 21.7484C23.2824 20.8103 23.8811 19.5084 23.8811 18.0645C23.8811 15.2181 21.5663 12.9032 18.7198 12.9032C15.8734 12.9032 13.5585 15.2181 13.5585 18.0645C13.5585 19.5084 14.1572 20.8103 15.1159 21.7484C13.3985 22.9084 12.2682 24.8735 12.2682 27.0968V28.3871H8.56366C6.85656 28.3871 5.41527 27.1652 5.13398 25.4826L3.28366 14.369ZM8.39721 30.9523C8.45398 30.9548 8.50688 30.9677 8.56366 30.9677H10.9779V61.9355C10.9779 63.3587 12.1353 64.5161 13.5585 64.5161H67.7521C69.1753 64.5161 70.3327 63.3587 70.3327 61.9355V30.9677C70.3327 29.6761 69.3766 28.6129 68.1366 28.4258C68.5805 27.5716 69.0127 26.7135 69.4295 25.8452C71.3805 26.0426 72.9134 27.6748 72.9134 29.6774V67.0968H8.39721V30.9523ZM31.623 69.6774H49.6876V70.9677C49.6876 71.6787 49.1082 72.2581 48.3972 72.2581H32.9134C32.2024 72.2581 31.623 71.6787 31.623 70.9677V69.6774ZM78.0746 70.9677C78.0746 74.5252 75.1805 77.4193 71.623 77.4193H9.68753C6.13011 77.4193 3.23592 74.5252 3.23592 70.9677V69.6774H29.0424V70.9677C29.0424 73.1019 30.7792 74.8387 32.9134 74.8387H48.3972C50.5314 74.8387 52.2682 73.1019 52.2682 70.9677V69.6774H78.0746V70.9677Z" fill="#464045"/>
</svg>

<svg xmlns="http://www.w3.org/2000/svg" width="81" height="80" fill="none"><g clip-path="url(#a)"><path fill="#FCC53B" d="M57.43 24.516a9.032 9.032 0 1 0 0-18.064 9.032 9.032 0 0 0 0 18.064Z"/><path fill="#464045" d="M75.494 67.097v-37.42c0-3.032-2.111-5.566-4.936-6.253.424-.95.833-1.904 1.224-2.87l.051-.127a14.683 14.683 0 0 0 1.08-5.534C72.913 6.68 66.153 0 57.843 0h-.826c-8.31 0-15.071 6.681-15.071 14.893 0 1.904.364 3.766 1.08 5.538l.05.124c.364.898.747 1.787 1.14 2.672h-8.92l1.406-8.43a6.064 6.064 0 0 0-5.974-7.055H6.712a6.064 6.064 0 0 0-5.974 7.053l1.851 11.11a6.023 6.023 0 0 0 3.228 4.387v36.805H.655v3.87C.655 75.949 4.707 80 9.688 80h61.935c4.98 0 9.032-4.052 9.032-9.032v-3.871h-5.161ZM57.017 2.58h.825c6.888 0 12.49 5.522 12.49 12.312 0 1.57-.299 3.107-.89 4.565l-.051.128a89.711 89.711 0 0 1-11.962 20.9 89.744 89.744 0 0 1-11.962-20.901l-.05-.124a12.123 12.123 0 0 1-.89-4.568c0-6.79 5.602-12.312 12.49-12.312Zm10.735 28.387v7.655c-1.174-.775-2.707-1.409-4.531-1.844a92.105 92.105 0 0 0 3.543-5.811h.988ZM18.72 23.226a3.876 3.876 0 0 1 3.87 3.87v5.918c0 .436-.604.685-.912.378l-5.005-5.005H14.85v-1.29a3.876 3.876 0 0 1 3.87-3.871Zm-2.58-5.162a2.583 2.583 0 0 1 2.58-2.58 2.583 2.583 0 0 1 2.58 2.58 2.583 2.583 0 0 1-2.58 2.581 2.583 2.583 0 0 1-2.58-2.58Zm-.535 12.904 4.249 4.249c.588.588 1.37.912 2.203.912a3.118 3.118 0 0 0 3.114-3.115v-2.046H33.67l-20.11 20.11v-20.11h2.046Zm36.034 5.811c-4.046.965-6.682 2.897-7.062 5.217l-13.6 13.599-9.142-9.143 15.483-15.484h10.777a92.105 92.105 0 0 0 3.544 5.811Zm9.997 2.32c3.832.71 6.116 2.275 6.116 3.482 0 1.578-4.022 3.87-10.322 3.87-6.301 0-10.323-2.292-10.323-3.87 0-1.207 2.284-2.772 6.116-3.483a92.592 92.592 0 0 0 3.197 4.287l1.01 1.267 1.008-1.267a93.24 93.24 0 0 0 3.198-4.287ZM13.558 54.727l6.452-6.452 13.66 13.66H13.558v-7.208Zm23.76 7.207-4.516-4.516 12.53-12.529c1.781 2.467 6.388 4.142 12.097 4.142 4.322 0 8.008-.961 10.323-2.498v15.401H37.32Zm8.093-36.129c.417.867.848 1.727 1.292 2.581H33.814a6.02 6.02 0 0 0 1.036-2.48l.017-.1H45.41ZM3.284 14.37a3.48 3.48 0 0 1 3.428-4.046h24.014a3.48 3.48 0 0 1 3.43 4.047l-1.852 11.111a3.465 3.465 0 0 1-3.428 2.906H25.17v-1.29a6.448 6.448 0 0 0-2.847-5.349 5.138 5.138 0 0 0 1.557-3.684 5.167 5.167 0 0 0-5.161-5.16 5.167 5.167 0 0 0-5.161 5.16c0 1.444.598 2.746 1.557 3.684a6.448 6.448 0 0 0-2.848 5.349v1.29H8.564a3.466 3.466 0 0 1-3.43-2.904l-1.85-11.114Zm5.113 16.583c.057.003.11.016.167.016h2.414v30.967a2.583 2.583 0 0 0 2.58 2.581h54.194a2.583 2.583 0 0 0 2.58-2.58V30.967a2.577 2.577 0 0 0-2.195-2.542c.444-.854.876-1.712 1.293-2.58 1.95.197 3.483 1.829 3.483 3.831v37.42H8.397V30.952Zm23.226 38.725h18.065v1.29c0 .712-.58 1.291-1.29 1.291H32.912c-.71 0-1.29-.58-1.29-1.29v-1.29Zm46.452 1.29a6.459 6.459 0 0 1-6.452 6.452H9.688a6.459 6.459 0 0 1-6.452-6.451v-1.29h25.806v1.29a3.876 3.876 0 0 0 3.871 3.87h15.484a3.876 3.876 0 0 0 3.871-3.87v-1.29h25.807v1.29Z"/><path fill="#464045" d="M71.623 74.839a1.29 1.29 0 1 0 0-2.58 1.29 1.29 0 0 0 0 2.58ZM66.462 74.839a1.29 1.29 0 1 0 0-2.58 1.29 1.29 0 0 0 0 2.58ZM57.43 25.807c5.691 0 10.322-4.631 10.322-10.323S63.121 5.161 57.429 5.161c-5.691 0-10.322 4.631-10.322 10.323s4.63 10.323 10.322 10.323Zm-6.695-6.452h1.883c.182.973.436 1.888.758 2.712a7.772 7.772 0 0 1-2.64-2.712Zm-1.047-3.871c0-.44.045-.87.116-1.29h2.505c-.024.428-.04.859-.04 1.29 0 .431.016.862.042 1.29h-2.507c-.071-.42-.117-.85-.117-1.29Zm7.741-7.742c.629 0 1.608 1.426 2.162 3.871h-4.322c.553-2.445 1.532-3.871 2.16-3.871Zm2.526 6.452c.027.418.055.837.055 1.29 0 .453-.028.872-.055 1.29h-5.05c-.028-.418-.056-.837-.056-1.29 0-.453.028-.872.055-1.29h5.05Zm5.216 1.29c0 .44-.045.87-.116 1.29H62.55c.025-.428.042-.859.042-1.29 0-.431-.017-.862-.043-1.29h2.506c.072.42.117.85.117 1.29Zm-7.742 7.742c-.628 0-1.607-1.426-2.16-3.871h4.32c-.552 2.445-1.531 3.87-2.16 3.87Zm4.055-1.159c.32-.824.576-1.74.758-2.712h1.883a7.793 7.793 0 0 1-2.641 2.712Zm2.64-10.454H62.24a15.09 15.09 0 0 0-.759-2.712 7.771 7.771 0 0 1 2.642 2.712ZM53.375 8.901c-.321.824-.575 1.74-.757 2.712h-1.883a7.78 7.78 0 0 1 2.64-2.712ZM53.559 28.387h2.58v2.58h-2.58v-2.58ZM58.72 28.387h2.58v2.58h-2.58v-2.58Z"/></g><defs><clipPath id="a"><path fill="#fff" d="M.655 0h80v80h-80z"/></clipPath></defs></svg>
